X:4265
T:Miss McKnight's
O:england
R:reel
M:C|
K:Ador
(3ege dB A2AG|EGDG EGD2|(3ege dB A2Bd|eaag edBd|
egdB A2AG|EGDG EGD2|~G3A BGBd|egdB BAA2:|
|:~G3A BGBd|~g3a baga|bage dGBd|e2ge edBA|
~G3A BGBd|~g3a baga|bage dGBd|egdB BAA2:|


